;FLAVOR:Marlin
;TIME:3872
;Filament used: 3.86886m
;Layer height: 0.28
;MINX:74.82
;MINY:70.119
;MINZ:0.28
;MAXX:160.18
;MAXY:169.637
;MAXZ:5.04
;TARGET_MACHINE.NAME:Creality Ender-3
;Generated with Cura_SteamEngine 5.10.0
M140 S50
M105
M190 S50
M104 S200
M105
M109 S200
; Ender 3 Custom Start G-code
G92 E0 ; Reset Extruder
G28 ; Home all axes
G1 Z2.0 F3000 ; Move Z Axis up little to prevent scratching of Heat Bed
G1 X0.1 Y20 Z0.3 F5000.0 ; Move to start position
G1 X0.1 Y200.0 Z0.3 F1500.0 E15 ; Draw the first line
G1 X0.4 Y200.0 Z0.3 F5000.0 ; Move to side a little
G1 X0.4 Y20 Z0.3 F1500.0 E30 ; Draw the second line
G92 E0 ; Reset Extruder
G1 Z2.0 F3000 ; Move Z Axis up little to prevent scratching of Heat Bed
G1 X5 Y20 Z0.3 F5000.0 ; Move over to prevent blob squish
M82 ;absolute extrusion mode
G92 E0
G92 E0
G1 F2700 E-5
;LAYER_COUNT:18
;LAYER:0
M107
G0 F6000 X77.587 Y73.845 Z0.28
;TYPE:SKIRT
G1 F2700 E0
G1 F1200 X78.289 Y73.12 E0.04699
G1 X78.999 Y72.506 E0.0907
G1 X79.818 Y71.916 E0.1377
G1 X80.657 Y71.42 E0.18308
G1 X81.471 Y71.029 E0.22513
G1 X82.448 Y70.661 E0.27375
G1 X83.352 Y70.411 E0.31742
G1 X84.354 Y70.228 E0.36485
G1 X85.525 Y70.132 E0.41956
G1 X86.132 Y70.119 E0.44783
G1 X148.484 Y70.119 E3.3512
G1 X149.364 Y70.132 E3.39218
G1 X150.336 Y70.191 E3.43753
G1 X151.299 Y70.337 E3.48288
G1 X152.246 Y70.568 E3.52827
G1 X153.134 Y70.868 E3.57191
G1 X154.026 Y71.258 E3.61725
G1 X154.909 Y71.745 E3.6642
G1 X155.66 Y72.247 E3.70626
G1 X156.475 Y72.905 E3.75504
G1 X157.173 Y73.583 E3.80035
G1 X157.809 Y74.32 E3.84568
G1 X158.379 Y75.11 E3.89104
G1 X158.841 Y75.886 E3.93309
G1 X159.295 Y76.828 E3.98178
G1 X159.624 Y77.706 E4.02544
G1 X159.893 Y78.678 E4.0724
G1 X160.07 Y79.644 E4.11813
G1 X160.165 Y80.774 E4.17094
G1 X160.18 Y81.449 E4.20238
G1 X160.179 Y147.869 E7.29517
G1 X160.166 Y148.634 E7.3308
G1 X160.106 Y149.606 E7.37614
G1 X159.959 Y150.568 E7.42146
G1 X159.728 Y151.516 E7.46689
G1 X159.426 Y152.404 E7.51057
G1 X159.02 Y153.327 E7.55752
G1 X158.585 Y154.119 E7.5996
G1 X158.002 Y154.985 E7.64821
G1 X157.388 Y155.743 E7.69363
G1 X156.709 Y156.44 E7.73894
G1 X155.971 Y157.075 E7.78427
G1 X155.181 Y157.644 E7.82961
G1 X154.405 Y158.106 E7.87166
G1 X153.463 Y158.559 E7.92033
G1 X152.546 Y158.9 E7.96589
G1 X151.509 Y159.181 E8.01592
G1 X149.169 Y159.69 E8.12742
G1 X146.742 Y160.287 E8.2438
G1 X144.281 Y160.967 E8.36269
G1 X141.9 Y161.699 E8.47868
G1 X139.515 Y162.506 E8.59592
G1 X137.135 Y163.387 E8.7141
G1 X134.85 Y164.308 E8.82881
G1 X132.488 Y165.338 E8.9488
G1 X130.23 Y166.398 E9.06495
G1 X127.981 Y167.535 E9.1823
G1 X126.476 Y168.339 E9.26175
G1 X125.597 Y168.757 E9.30707
G1 X124.684 Y169.096 E9.35242
G1 X123.744 Y169.353 E9.3978
G1 X122.856 Y169.515 E9.43983
G1 X121.494 Y169.622 E9.50344
G1 X120.672 Y169.634 E9.54172
G1 X114.392 Y169.637 E9.83415
G1 X113.499 Y169.624 E9.87573
G1 X112.528 Y169.565 E9.92103
G1 X111.564 Y169.419 E9.96643
G1 X110.652 Y169.198 E10.01013
G1 X109.725 Y168.887 E10.05565
G1 X108.606 Y168.382 E10.11282
G1 X105.764 Y166.894 E10.2622
G1 X103.535 Y165.811 E10.37759
G1 X101.249 Y164.78 E10.49436
G1 X98.897 Y163.797 E10.61306
G1 X96.513 Y162.88 E10.732
G1 X94.228 Y162.075 E10.84481
G1 X91.785 Y161.291 E10.96428
G1 X89.38 Y160.592 E11.0809
G1 X86.955 Y159.963 E11.19755
G1 X84.388 Y159.372 E11.32021
G1 X83.467 Y159.172 E11.3641
G1 X82.56 Y158.931 E11.4078
G1 X81.611 Y158.588 E11.45478
G1 X80.729 Y158.176 E11.50011
G1 X79.947 Y157.725 E11.54215
G1 X79.092 Y157.123 E11.59084
G1 X78.349 Y156.494 E11.63617
G1 X77.689 Y155.827 E11.67986
G1 X77.044 Y155.049 E11.72692
G1 X76.512 Y154.276 E11.77061
G1 X76.016 Y153.397 E11.81761
G1 X75.616 Y152.511 E11.86288
G1 X75.293 Y151.59 E11.90832
G1 X75.055 Y150.646 E11.95366
G1 X74.902 Y149.685 E11.99897
G1 X74.833 Y148.722 E12.04392
G1 X74.82 Y148.097 E12.07303
G1 X74.821 Y81.628 E15.16811
G1 X74.833 Y80.927 E15.20075
G1 X74.893 Y79.954 E15.24615
G1 X75.04 Y78.993 E15.29142
G1 X75.271 Y78.045 E15.33685
G1 X75.573 Y77.156 E15.38057
G1 X75.98 Y76.234 E15.4275
G1 X76.451 Y75.382 E15.47283
G1 X76.996 Y74.573 E15.51825
G1 X77.587 Y73.845 E15.56191
G0 F6000 X77.898 Y74.097
G1 F1200 X78.551 Y73.423 E15.60561
G1 X79.261 Y72.809 E15.64932
G1 X80.022 Y72.26 E15.69301
G1 X80.83 Y71.781 E15.73675
G1 X81.644 Y71.39 E15.7788
G1 X82.555 Y71.047 E15.82413
G1 X83.459 Y70.797 E15.8678
G1 X84.387 Y70.627 E15.91173
G1 X85.534 Y70.532 E15.96532
G1 X86.141 Y70.519 E15.9936
G1 X148.478 Y70.519 E18.89627
G1 X149.34 Y70.531 E18.93641
G1 X150.277 Y70.587 E18.98012
G1 X151.205 Y70.726 E19.02381
G1 X152.118 Y70.947 E19.06755
G1 X152.974 Y71.235 E19.10961
G1 X153.866 Y71.625 E19.15494
G1 X154.687 Y72.078 E19.1986
G1 X155.438 Y72.58 E19.24066
G1 X156.197 Y73.192 E19.28606
G1 X156.871 Y73.845 E19.32976
G1 X157.485 Y74.554 E19.37343
G1 X158.035 Y75.315 E19.41716
G1 X158.497 Y76.091 E19.45921
G1 X158.92 Y76.968 E19.50455
G1 X159.249 Y77.846 E19.54821
G1 X159.5 Y78.751 E19.59194
G1 X159.671 Y79.678 E19.63583
G1 X159.766 Y80.808 E19.68863
G1 X159.78 Y81.449 E19.71849
G1 X159.779 Y147.863 E22.811
G1 X159.767 Y148.61 E22.84579
G1 X159.71 Y149.546 E22.88946
G1 X159.57 Y150.474 E22.93316
G1 X159.349 Y151.387 E22.9769
G1 X159.047 Y152.275 E23.02057
G1 X158.669 Y153.134 E23.06427
G1 X158.234 Y153.926 E23.10635
G1 X157.691 Y154.734 E23.15168
G1 X157.101 Y155.464 E23.19538
G1 X156.448 Y156.137 E23.23905
G1 X155.737 Y156.751 E23.28279
G1 X154.976 Y157.3 E23.32649
G1 X154.2 Y157.762 E23.36854
G1 X153.323 Y158.184 E23.41386
G1 X152.441 Y158.514 E23.45771
G1 X151.424 Y158.79 E23.50678
G1 X149.084 Y159.299 E23.61829
G1 X146.635 Y159.902 E23.73573
G1 X144.174 Y160.582 E23.85462
G1 X141.772 Y161.32 E23.97162
G1 X139.387 Y162.127 E24.08886
G1 X136.985 Y163.016 E24.20813
G1 X134.69 Y163.941 E24.32334
G1 X132.328 Y164.971 E24.44333
G1 X130.06 Y166.036 E24.56
G1 X127.792 Y167.182 E24.67833
G1 X126.304 Y167.978 E24.7569
G1 X125.457 Y168.382 E24.8006
G1 X124.578 Y168.71 E24.84429
G1 X123.672 Y168.959 E24.88804
G1 X122.784 Y169.121 E24.93007
G1 X121.488 Y169.222 E24.9906
G1 X120.669 Y169.235 E25.02874
G1 X114.397 Y169.237 E25.32079
G1 X113.523 Y169.225 E25.36149
G1 X112.587 Y169.169 E25.40515
G1 X111.658 Y169.03 E25.44889
G1 X110.746 Y168.809 E25.49259
G1 X109.89 Y168.522 E25.53463
G1 X108.771 Y168.017 E25.5918
G1 X105.939 Y166.534 E25.74065
G1 X103.71 Y165.451 E25.85605
G1 X101.413 Y164.415 E25.97338
G1 X99.051 Y163.428 E26.09258
G1 X96.657 Y162.507 E26.21202
G1 X94.35 Y161.694 E26.32592
G1 X91.907 Y160.91 E26.44539
G1 X89.487 Y160.207 E26.56273
G1 X87.045 Y159.573 E26.68021
G1 X84.478 Y158.982 E26.80287
G1 X83.569 Y158.785 E26.84618
G1 X82.696 Y158.555 E26.88822
G1 X81.78 Y158.225 E26.93355
G1 X80.929 Y157.829 E26.97726
G1 X80.147 Y157.378 E27.01929
G1 X79.35 Y156.818 E27.06465
G1 X78.633 Y156.212 E27.10836
G1 X77.997 Y155.571 E27.15041
G1 X77.374 Y154.822 E27.19578
G1 X76.842 Y154.049 E27.23947
G1 X76.38 Y153.232 E27.28317
G1 X75.993 Y152.378 E27.32683
G1 X75.681 Y151.492 E27.37057
G1 X75.45 Y150.582 E27.41429
G1 X75.301 Y149.656 E27.45796
G1 X75.233 Y148.714 E27.50194
G1 X75.22 Y148.097 E27.53068
G1 X75.221 Y81.634 E30.62547
G1 X75.232 Y80.951 E30.65728
G1 X75.289 Y80.014 E30.70099
G1 X75.429 Y79.087 E30.74465
G1 X75.65 Y78.174 E30.78839
G1 X75.952 Y77.285 E30.83211
G1 X76.33 Y76.427 E30.87576
G1 X76.783 Y75.605 E30.91947
G1 X77.307 Y74.825 E30.96322
G1 X77.898 Y74.097 E31.00688
G0 F6000 X78.186 Y74.375
G1 F1200 X78.813 Y73.725 E31.04894
G1 X79.495 Y73.133 E31.09099
G1 X80.227 Y72.604 E31.13304
G1 X81.003 Y72.142 E31.1751
G1 X81.817 Y71.751 E31.21715
G1 X82.662 Y71.432 E31.2592
G1 X83.532 Y71.19 E31.30125
G1 X84.42 Y71.026 E31.3433
G1 X85.543 Y70.932 E31.39577
G1 X86.15 Y70.919 E31.42405
G1 X148.473 Y70.919 E34.32607
G1 X149.317 Y70.93 E34.36537
G1 X150.219 Y70.983 E34.40744
G1 X151.112 Y71.115 E34.44948
G1 X151.99 Y71.326 E34.49152
G1 X152.846 Y71.614 E34.53358
G1 X153.673 Y71.976 E34.57561
G1 X154.465 Y72.411 E34.61769
G1 X155.216 Y72.913 E34.65975
G1 X155.919 Y73.48 E34.70181
G1 X156.569 Y74.107 E34.74386
G1 X157.161 Y74.789 E34.78591
G1 X157.691 Y75.52 E34.82796
G1 X158.153 Y76.296 E34.87001
G1 X158.546 Y77.109 E34.91206
G1 X158.864 Y77.954 E34.9541
G1 X159.107 Y78.824 E34.99616
G1 X159.272 Y79.712 E35.03821
G1 X159.367 Y80.842 E35.09102
G1 X159.38 Y81.449 E35.11929
G1 X159.379 Y147.857 E38.21152
G1 X159.368 Y148.586 E38.24547
G1 X159.314 Y149.487 E38.2875
G1 X159.181 Y150.381 E38.32959
G1 X158.97 Y151.259 E38.37164
G1 X158.681 Y152.114 E38.41366
G1 X158.318 Y152.941 E38.45572
G1 X157.883 Y153.733 E38.49779
G1 X157.38 Y154.483 E38.53984
G1 X156.813 Y155.186 E38.5819
G1 X156.186 Y155.835 E38.62392
G1 X155.503 Y156.427 E38.666
G1 X154.771 Y156.956 E38.70806
G1 X153.995 Y157.418 E38.75011
G1 X153.182 Y157.81 E38.79214
G1 X152.336 Y158.128 E38.83422
G1 X151.339 Y158.399 E38.88233
G1 X148.999 Y158.909 E38.99385
G1 X146.528 Y159.516 E39.11233
G1 X144.067 Y160.197 E39.23123
G1 X141.644 Y160.941 E39.34926
G1 X139.259 Y161.748 E39.4665
G1 X136.846 Y162.641 E39.5863
G1 X134.53 Y163.574 E39.70257
G1 X132.168 Y164.604 E39.82255
G1 X129.89 Y165.674 E39.93975
G1 X127.603 Y166.829 E40.05905
G1 X126.131 Y167.617 E40.13679
G1 X125.317 Y168.007 E40.17882
G1 X124.471 Y168.324 E40.22089
G1 X123.6 Y168.565 E40.26297
G1 X122.712 Y168.727 E40.305
G1 X121.482 Y168.822 E40.36245
G1 X120.669 Y168.835 E40.40031
G1 X114.402 Y168.837 E40.69213
G1 X113.546 Y168.826 E40.73199
G1 X112.645 Y168.773 E40.77402
G1 X111.751 Y168.641 E40.8161
G1 X110.873 Y168.43 E40.85814
G1 X110.017 Y168.143 E40.90018
G1 X108.957 Y167.663 E40.95437
G1 X106.114 Y166.174 E41.10381
G1 X103.885 Y165.091 E41.2192
G1 X101.577 Y164.05 E41.3371
G1 X99.205 Y163.059 E41.4568
G1 X96.801 Y162.134 E41.57674
G1 X94.472 Y161.313 E41.69173
G1 X92.029 Y160.529 E41.8112
G1 X89.594 Y159.822 E41.92927
G1 X87.135 Y159.183 E42.04757
G1 X84.568 Y158.592 E42.17023
G1 X83.671 Y158.398 E42.21296
G1 X82.798 Y158.168 E42.255
G1 X81.948 Y157.862 E42.29706
G1 X81.129 Y157.482 E42.33911
G1 X80.347 Y157.031 E42.38114
G1 X79.608 Y156.512 E42.42319
G1 X78.917 Y155.93 E42.46526
G1 X78.281 Y155.289 E42.5073
G1 X77.703 Y154.595 E42.54936
G1 X77.19 Y153.852 E42.5914
G1 X76.744 Y153.066 E42.63348
G1 X76.37 Y152.245 E42.67549
G1 X76.069 Y151.393 E42.71757
G1 X75.845 Y150.518 E42.75963
G1 X75.7 Y149.627 E42.80166
G1 X75.633 Y148.705 E42.84471
G1 X75.62 Y148.097 E42.87302
G1 X75.621 Y81.64 E45.96754
G1 X75.631 Y80.975 E45.99851
G1 X75.685 Y80.073 E46.04058
G1 X75.818 Y79.18 E46.08262
G1 X76.029 Y78.302 E46.12467
G1 X76.318 Y77.446 E46.16674
G1 X76.681 Y76.619 E46.2088
G1 X77.115 Y75.828 E46.25081
G1 X77.618 Y75.077 E46.2929
G1 X78.186 Y74.375 E46.33495
G1 F2700 E41.33495
;MESH:BatteryLid.stl
G0 F6000 X109.643 Y107.662
G0 X110.136 Y107.99
;TYPE:WALL-OUTER
G1 F2700 E46.33495
G1 F983.6 X109.059 Y107.661 E46.39892
G1 X110.136 Y107.331 E46.46291
G1 X110.136 Y107.99 E46.50035
G1 F2700 E41.50035
G0 F6000 X109.912 Y107.688
G0 X109.96 Y114.091
G0 X110.136 Y114.51
G1 F2700 E46.50035
G1 F983.6 X109.059 Y114.181 E46.56432
G1 X110.136 Y113.851 E46.62831
G1 X110.136 Y114.51 E46.66575
G1 F2700 E41.66575
G0 F6000 X109.912 Y114.208
G0 X110.844 Y122.685
G0 X110.692 Y123.201
;TYPE:WALL-INNER
G1 F2700 E46.66575
G1 F1280 X110.984 Y123.199 E46.67849
G1 X111.093 Y123.131 E46.6841
G1 X111.144 Y123.028 E46.68912
G1 X111.092 Y122.93 E46.69396
G1 X110.984 Y122.865 E46.69946
G1 X110.702 Y122.866 E46.71178
G1 X110.593 Y122.933 E46.71736
G1 X110.538 Y123.047 E46.72289
G1 X110.581 Y123.137 E46.72724
G1 X110.692 Y123.201 E46.73283
G0 F6000 X110.841 Y123.613
;TYPE:WALL-OUTER
G1 F1200 X111.121 Y123.568 E46.74604
G1 X111.361 Y123.421 E46.75914
G1 X111.493 Y123.239 E46.76961
G1 X111.542 Y123.026 E46.77979
G1 X111.491 Y122.812 E46.79003
G1 X111.355 Y122.636 E46.80039
G1 X111.121 Y122.496 E46.81309
G1 X110.841 Y122.451 E46.82629
G1 X110.564 Y122.496 E46.83936
G1 X110.326 Y122.642 E46.85236
G1 X110.19 Y122.826 E46.86302
G1 X110.141 Y123.045 E46.87347
G1 X110.187 Y123.255 E46.88348
G1 X110.317 Y123.431 E46.89366
G1 X110.563 Y123.575 E46.90694
G1 X110.841 Y123.613 E46.92
G1 F2700 E41.92
G0 F6000 X110.843 Y123.303
G0 X110.379 Y123.044
G0 X108.522 Y123.021
G0 X108.333 Y123.044
;TYPE:WALL-INNER
G1 F2700 E46.92
G1 F879.1 X108.299 Y122.985 E46.92433
G1 X108.231 Y122.985 E46.92865
G1 X108.197 Y123.044 E46.93298
G1 X108.231 Y123.103 E46.93731
G1 X108.299 Y123.103 E46.94163
G1 X108.333 Y123.044 E46.94596
G0 F6000 X108.265 Y123.521
;TYPE:WALL-OUTER
G1 F1200 X108.463 Y123.492 E46.95528
G1 X108.62 Y123.389 E46.96402
G1 X108.72 Y123.222 E46.97309
G1 X108.752 Y123.019 E46.98265
G1 X108.718 Y122.833 E46.99146
G1 X108.625 Y122.691 E46.99936
G1 X108.471 Y122.595 E47.00781
G1 X108.279 Y122.564 E47.01687
G1 X108.076 Y122.595 E47.02643
G1 X107.92 Y122.694 E47.03503
G1 X107.815 Y122.855 E47.04398
G1 X107.784 Y123.042 E47.05281
G1 X107.815 Y123.237 E47.06201
G1 X107.917 Y123.391 E47.07061
G1 X108.07 Y123.492 E47.07914
G1 X108.265 Y123.521 E47.08832
G1 F2700 E42.08832
G0 F6000 X108.265 Y123.211
G0 X123.009 Y126.785
G0 X123.217 Y127.561
G1 F2700 E47.08832
G1 F1010.5 X123.092 Y127.504 E47.09592
G1 X122.965 Y127.271 E47.11059
G1 F1016.9 X122.741 Y126.542 E47.1525
G1 F1025.6 X123.089 Y126.618 E47.1719
G1 X123.217 Y126.717 E47.18072
G1 F1016.9 X123.396 Y127.053 E47.20164
G1 F1010.5 X123.405 Y127.408 E47.22127
G1 X123.353 Y127.505 E47.22736
G1 X123.217 Y127.561 E47.23549
G1 F2700 E42.23549
G0 F6000 X123.224 Y127.285
G0 X122.577 Y132.423
G0 X122.588 Y132.647
;TYPE:WALL-INNER
G1 F2700 E47.23549
G1 F1209.1 X122.59 Y133.198 E47.26096
G0 F6000 X122.184 Y133.604
;TYPE:WALL-OUTER
G1 F1200 X122.996 Y133.604 E47.29877
G1 X122.995 Y132.837 E47.33448
G1 X122.971 Y132.55 E47.34789
G1 X122.869 Y132.314 E47.35986
G1 X122.742 Y132.221 E47.36719
G1 X122.574 Y132.188 E47.37516
G1 X122.423 Y132.219 E47.38234
G1 X122.309 Y132.309 E47.38911
G1 X122.205 Y132.553 E47.40146
G1 X122.184 Y132.805 E47.41323
G1 X122.184 Y133.604 E47.45044
G1 F2700 E42.45044
G0 F6000 X122.464 Y133.324
G0 X120.412 Y133.329
G0 X119.988 Y133.52
G1 F2700 E47.45044
G1 F849.6 X119.987 Y132.765 E47.50009
G1 F858.7 X120.074 Y132.576 E47.51363
G1 F863.3 X120.142 Y132.528 E47.51902
G1 X120.391 Y132.525 E47.53514
G1 X120.472 Y132.581 E47.54151
G1 X120.543 Y132.745 E47.55308
G1 F854.1 X120.555 Y132.997 E47.56958
G1 F845.1 X120.556 Y133.52 E47.60416
G1 X119.988 Y133.52 E47.64172
G1 F2700 E42.64172
G0 F6000 X120.184 Y133.324
G0 X120.263 Y132.659
G0 X121.514 Y114.127
G0 X121.705 Y114.479
G1 F2700 E47.64172
G1 F1076.2 X121.479 Y114.373 E47.65468
G1 X121.324 Y114.207 E47.66647
G1 X121.255 Y113.912 E47.6822
G1 F1088.4 X121.284 Y113.699 E47.69324
G1 F1100.9 X121.392 Y113.53 E47.70342
G1 X121.636 Y113.387 E47.71777
G1 X121.71 Y113.371 E47.72161
G1 F1088.4 X121.705 Y114.479 E47.7785
G1 F2700 E42.7785
G0 F6000 X121.486 Y114.052
G0 X121.516 Y113.709
G0 X121.515 Y102.01
G0 X121.705 Y102.376
G1 F2700 E47.7785
G1 F1076.2 X121.489 Y102.272 E47.79094
G1 X121.311 Y102.065 E47.80512
G1 X121.255 Y101.813 E47.81852
G1 F1088.4 X121.284 Y101.598 E47.82966
G1 F1100.9 X121.393 Y101.425 E47.84004
G1 X121.636 Y101.283 E47.85432
G1 X121.71 Y101.267 E47.85816
G1 F1088.4 X121.705 Y102.376 E47.9151
G1 F2700 E42.9151
G0 F6000 X121.487 Y101.935
G0 X121.516 Y101.607
G0 X120.957 Y100.662
G0 X121.936 Y100.025
G0 X122.718 Y98.708
;TYPE:WALL-INNER
G1 F2700 E47.9151
G1 F1188.1 X122.643 Y98.665 E47.91916
G1 X122.643 Y98.751 E47.92321
G1 X122.718 Y98.708 E47.92727
G1 F2700 E42.92727
G0 F6000 X122.022 Y98.935
G0 X121.791 Y116.826
G0 X121.936 Y117.368
G1 F2700 E47.92727
G1 F1337 X122.777 Y117.369 E47.96242
G1 F1340.8 X122.729 Y116.997 E47.97805
G1 F1352.1 X122.32 Y117.02 E47.99498
G1 F1348.3 X121.93 Y116.99 E48.01119
G1 F1333.3 X121.936 Y117.368 E48.02703
G1 F2700 E43.02703
G0 F6000 X122.971 Y117.525
G0 X122.971 Y118.613
G0 X123.038 Y118.949
G0 X123.164 Y120.217
G1 F2700 E48.02703
G1 F1170.7 X123.497 Y120.188 E48.04299
G1 F1116.3 X124.079 Y120.095 E48.07249
G0 F6000 X122.744 Y120.434
G0 X122.238 Y120.789
G0 X122.05 Y120.974
G1 F814.9 X122.63 Y120.974 E48.11226
G1 X122.621 Y120.666 E48.13339
G1 X122.871 Y120.31 E48.16321
